X:1
T:Navez point veu
T:Navez point veu
T:Tielman Susato
C:Tielman Susato
%%score [ 1 [ 2 3 ] 4 ]
L:1/8
Q:1/4=96
M:2/2
K:F
V:1 treble nm="Superius" snm="S"
V:2 treble-8 nm="Tenor 1" snm="T 1"
V:3 treble-8 nm="Tenor 2" snm="T 2"
V:4 bass nm="Bassus" snm="B"
V:1
 A2 AB c2 c2 | c2 c2 B4 | A8- | A4 z4 | z8 | A2 AB c2 c2 | B2 G2 A4- | A2 GF G2 G2 | B2 B2 A4- | %9
w: N'a- vez point veu mal-|as- sa- né-|e,|_||n'a- vez point veu mal-|as- sa- né-|* * * e, mal-|as- sa- né-|
 A4 G2 z2 | z4 A2 AB | c2 A2 B2 G2 | F8 | z4 D2 DE | F2 F2 F2 F2 | E2 C3 DEF | G2 A4 G2 | %17
w: * e,|cel- le de|quoy on par- le|tant?|Ma me- re|l'a- voit en- voy-|é- * * * *||
 A4 z2 A2 | A2 F2 G4 | F4 z4 | E2 EF G2 E2 | F4 D4 | C4 z4 | A2 AB c2 A2 | B2 G2 F2 A2 | %25
w: e, en|voy- é- *|e|gar- der les bre- bi-|set- tes'au|champ,|gar- der les bre- bi-|set- t'au champ, gar-|
 A2 A2 G2 F2- | FEDC DE F2- | F2 E2 F4 | z2 A2 G2 G2 | D3 E F2 D2 | C2 c2 c2 c2 | B2 G2 B2 B2 | %32
w: der les bre- bi-|* * * * set- _ tes|_ au champ,|et son a-|my qui va de-|vant, et son a-|my qui va de-|
 A6 GF | E2 CD EF G2- | GF F4 E2 | F8 | z8 | z8 | z4 F3 E | F2 G2 A2 d2- |"^-natural" dc c4 B2 | %41
w: vant _ _|_ luy _ _ _ de-|* * * man-|dant:|||"Se- rez|vous mon as- so-|* * té- *|
 c8 | z4 c2 cd | c3 B A3 G | F8 | z2 A2 G2 G2 | D3 E F2 D2 | C2 c2 c2 c2 | B2 G2 B2 B2 | A6 GF | %50
w: e?"|"Nen- ny" dict|el- le, "mon a-|my,|je n'o- se-|roy' en bon- ne|foy, nen- ny" dict|el- le, "mon a-|my, je _|
 E2 CD EF G2- | GF F4 E2 | F8- | F8 | z8 | z8 | z4 G2 GG | G2 G2 A2 B2 | c3 B A2 G2 | F2 A4 B2 | %60
w: n'o- se- * * * roy'|_ en bon- ne|foy,|_|||mais frin- gues|moy sur la ro-|sé- * * *||
 G3 A B2 c2- | c2 B2 c3 B/A/ | G2 A3 G F2- | F2 E2 F4- | F8- | F8- | F8 |] %67
w: |||* * e".|_|||
V:2
 z4 A2 AB | c2 c2 d2 d2 | f2 ed c4- | c4 z4 | d2 de f2 f2 | f2 f2 e4 | d6 cB | A4 e2 ef | %8
w: vez point veu|mal- as- sa- né-|e * * n'a-|_|vez point veu mal- as-|sa- né- e,||cel- le de quoy|
 g2 e2 f2 d2 | c2 z2 z4 | d2 de f2 d2 | e2 c2 B3 c | d4 c2 F2 | G2 c2 d2 B2 | d6 d2 | c3 B A4 | %16
w: on par- le tant,|cel-|le de quoy on par-|le * * *|tant, cel- le|de quoy on par-|le tant,|ma _ _|
 z4 d2 de | f2 f2 f2 c2- | cB A2 G4 | z4 A2 AB | c2 A2 B2 G2 | F8 | z4 d2 de | f2 d2 _e2 c2 | %24
w: me- re l'a-|voit en voy- é-|* * e gar-|der les bre-|bi- set- t'au champ,|gar-|der les bre-|bi- set- t'au champ,|
 B3 c de f2- | f2 f2 e2 c2 | d6 B2 | c2 c2 A2 d2 | c2 c2 G3 A | B2 G2 F2 f2 | f2 f2 _e2 c2 | %31
w: gar- _ _ _ _|_ der les bre-|bi- set-|t'au champ, et son|a- my qui va|de- vant, et son|a- my qui va|
"^b""^b" e2 e2 d3 e | f3 e/d/ cd ef | g4 z2 c2 | c2 B2 c4 | c3 B c2 d2 | e2 f3 d g2- | gf f4 e2 | %38
w: de- vant, luy _|_ _ _ _ _ _ _|* de-|man- dant: "Se-|rez vous mon mon|as- sot- * *|* té- e, *|
 f8 | z4 d4 | e2 f2 g4 | e2 g2 ga g2- | gfed c4 | z8 | z4 z2 d2 | c2 c2 G3 A | B2 G2 F2 f2 | %47
w: mon|as-|so- té- e?"|"Nen- ny" dict- el- le|_ "mon a- my, je-||n'o-|se- roy' en _|_ bon- ne foy,|
 f2 f2 _e2 c2 |"^b""^b" e2 e2 d3 e | f3 e/d/ cd ef | g4 z2 c2 | c2 B2 c4- | c4 z2 c2 | %53
w: je n'o- se- roy',|en bon- ne foy,|en _ _ _ _ _ _|_ bon-|ne foy, mais|_ frin-|
 cc c2 c2 d2 | f3 e dc d2- | dc BA B2 d2- | de fd e2 f2- | f2 e2 f2 ed | c4 z4 | d2 dd d2 d2 | %60
w: gues moy sur la ro-|sé- * * * *|||* * e, * *|mais|frin- gues moy sur la|
 e2 g3 f e2 | d4 c4 | z4 z2 c2 | cc c2 c2 d2 | f3 e d2 c2 | d4 c4- | c8 |] %67
w: ro- sé- * *|e, mais|frin-|gues moy sur la ro-|sé- * * *|e." N'a-|_|
V:3
 z8 | z8 | z4 A2 AB | c2 c2 c2 c2 | B4 A4- | A4 z4 | z4 A2 AB | c2 c2 c2 c2 | B2 AG F4 | %9
w: ||vez point veu|mal- as- sa- né-|e, n'a-|_|vez point veu|mal- as- sa- né-|e, * * cel-|
 A2 AB c2 A2 | B2 G2 F4 | z8 | z4 A2 AB | c2 A2 B2 G2 | F4 z4 | A2 AB c2 c2 | c2 c2 B4 | %17
w: le de quoy on par-|le tant, cel-||le de quoy|on par- le tant,|ma|me- re l'a- voit en-|voy- é- e|
 A2 F3 G AB | c2 d4 c2 | d8 | z8 | z4 A2 AB | c2 A2 B2 G2 | F4 z4 | z8 | A2 AB c2 A2 | B4 A2 GF | %27
w: ||gar-||der les bre-|bi- set- t'au champ,|gar-||der les bre- bi- set-|tes au _ _|
 G4 F4 | z8 | z2 d2 d2 d2 | A3 B c2 A2 | G2 c2 c2 B2 | c8 | z2 c2 c3 B | A2 F2 G4 | F8 | z8 | z8 | %38
w: champ, et||son a- my|qui va de- vant|luy de- man- dant,-|luy|de- man- *|* * dant:|"Se-|||
 z2 c3 B c2 | d2 e2 f4 | e2 dc d4 | c4 z2 c2 | cd c3 B AG | A3 B c2 A2 | B4 A4- | A4 z4 | %46
w: rez vous mon|as- sot- té-|e?" * * *|"Nen ny"|dict el le "mon a- _|my, * * *|* je|_|
 z2 d2 d2 d2 | A3 B c2 A2 | G2 c2 c2 B2 | c8 | z2 c2 c3 B | A2 GF G4 | F8- | F4 z4 | z4 z2 G2 | %55
w: n'o- se- roy'|en bon- ne foy,|en bon- ne foy,|je|n'o- se- roy,||mais|_|frin-|
 GG G4 G2 | A2 B2 c2 BA | G4 z4 | c2 cc c2 c2 | d2 f3 e d2 | c4 G2 GG | G2 G2 A2 c2- | cB AG F4 | %63
w: gues moy sur la|ro- sé- e, * *|mais|frin- gues moy sur la|ro- sé- * e,|mais frin- gues moy|sur la ro- sé-||
 G4 F4- | F8- | F8- | F8 |] %67
w: e." N'a-|_|||
V:4
 z8 | z8 | D,2 D,E, F,2 F,2 | F,2 F,2 C,D, E,F, | G,4 D,2 D,E, | F,2 F,2 C,2 C,2 | %6
w: ||vez point veu mal- as-|sa- né- e, * * *|n'a- vez point veu|mal- as- sa- né-|
 G,3 F, D,2 F,2- | F,2 E,D, C,4 | z4 D,2 D,E, | F,2 D,2 _E,2 C,2 | B,,3 C, D,4 | C,4 z4 | %12
w: e, * * *|* * * cel-|le de quoy|on par- le *|* * tant,|cel-|
 D,2 D,E, F,2 D,2 | E,2 C,2 B,,4- | B,,8 | z8 | z8 | D,2 D,E, F,2 F,2 |"^b" F,2 F,2 E,4 | D,8 | %20
w: le de quoy on par-|le tant, ma|_|||me- re l'a- voit en-|voy- é- e|gar-|
 z8 | D,2 D,E, F,2 D,2 |"^b" E,2 C,2 B,,3 C, | D,4 C,4 | z4 D,2 D,E, | F,2 D,2 E,2 F,2 | B,,4 D,4 | %27
w: |der les bre- bi- set-|t'au * * *|champ, gar-|der les bre-|bi- set- t'au *||
 C,4 D,3 E, | F,4 z2 G,2 | G,2 G,2 D,3 E, | F,2 F,2 C,4 | z2 C,2 G,2 G,2 | F,6 E,D, | C,4 C,4 | %34
w: * * champ,|et son|a- my qui va|de- vant, luy|de- man- dant,|luy _ _|_ de-|
 D,2 D,2 C,4 | z2 F,3 E, F,2 | G,2 A,2 B,4 | A,2 G,F, G,4 | F,4 z2 F,2 | F,2 E,2 D,2 D,2 | %40
w: man- dant: "Se-|rez vous mon|as- sot té-|e, * * *|se- rez|vous mon as- sot-|
 A,4 G,4 | C,8 | z8 | F,2 F,G, F,3 E, | D,C, B,,2 D,3 E, | F,4 z2 G,2 | G,2 G,2 D,3 E, | %47
w: té- e?"|"Nen-||ny" dict el- le "mon|a- _ my, * *|je n'o-|se- roy' en bon-|
 F,2 F,2 C,4 | z2 C,2 G,2 G,2 | F,6 E,D, | C,4 C,4 | D,2 D,2 C,4 | F,8 | z4 F,2 F,F, | %54
w: ne foy, je|n'o- se- roy-|e, * *|* en|bon- ne foy,|mais|frin- gues moy|
 F,2 F,2 G,2 B,2- | B,A, G,F, G,3 F,/E,/ | D,4 C,4 | C,4 F,2 G,2 | A,3 G, F,2 E,2 | %59
w: sur la- ro- _|_ _ _ _ _ _ _|sé- *|e, mais frin-|gues moy sur la|
 D,3 E, F,2 G,2 | C,4 z4 | z4 C,2 C,C, | C,2 C,2 D,2 F,2 | C,4 F,3 E, | D,C, B,,4 A,,2 | %65
w: ro- sé- e, *|mais|frin- gues moy|sur la ro- sé-|e." * *||
 B,,4 F,,4- | F,,8 |] %67
w: ||

